!!!COM: Josquin Des Pres
!!!OTL: De tous biens playne
!!!ONB: Cantus firmus Canon
!!!ONB: Canon: Petrus et Joannes currunt in puncto
!!!YOR: From New Josquin Edition, Volume 4: Secular Works
!!!YOR: A. Smijers (editor).
!!!YOR: Amsterdam: Vereniging voor Nederlandse Musiekgeschiedenis, 1965; pp. 31-33.
**kern	**kern	**kern	**kern
*conseq	*guida	*CF	*CF
*k[b-]	*k[b-]	*k[b-]	*k[b-]
*M2/2	*M2/2	*M2/2	*M2/2
=1-	=1-	=1-	=1-
4r	4.G	[1G	1g
4.G	.	.	.
.	8A	.	.
.	4B-	.	.
8A	.	.	.
4B-	4G	.	.
=2	=2	=2	=2
4G	4.B-	1G]	2.g
4.B-	.	.	.
.	8c	.	.
.	4d	.	.
8c	.	.	.
4d	4G	.	8f
.	.	.	8e
=3	=3	=3	=3
4G	4r	1B-	2d
4r	4d	.	.
4d	4B-	.	[2g
4B-	4d	.	.
=4	=4	=4	=4
4d	4D	1A	2g]
4D	4F	.	.
4F	4D	.	2f
4D	4d	.	.
=5	=5	=5	=5
4d	4B-	2G	2g
4B-	4G	.	.
4G	8d	[2B-	2g
.	8c	.	.
8d	8B-	.	.
8c	8A	.	.
=6	=6	=6	=6
8B-	4G	2B-]	2g
8A	.	.	.
4G	4r	.	.
4r	2F	2c	2a
[4F	.	.	.
=7	=7	=7	=7
4F]	8D	1d	4b-
.	8E	.	.
8D	4F	.	8a
8E	.	.	8g
4F	4D	.	2f
4D	4r	.	.
=8	=8	=8	=8
4r	4G	2e-	2g
4G	4.B-	.	.
4.B-	.	2d	[2f
.	8c	.	.
.	[4d	.	.
8c	.	.	.
=9	=9	=9	=9
4.d	8d]	1B-	2f]
.	8c	.	.
.	8B-	.	.
8c	8A	.	.
8B-	2G	.	4g
8A	.	.	.
[4G	.	.	4f
=10	=10	=10	=10
4G]	4C	2c	2e
4C	4.G	.	.
4.G	.	2B-	[2d
.	8A	.	.
.	[4B-	.	.
8A	.	.	.
=11	=11	=11	=11
2B-	4B-]	1d	2d]
.	4BB-	.	.
4BB-	4B-	.	4f
4B-	4r	.	4g
=12	=12	=12	=12
4r	2F	2c	2a
2F	.	.	.
.	4BB-	2d	[2b-
4BB-	[4B-	.	.
=13	=13	=13	=13
4.B-	8B-]	1G	4b-]
.	8c	.	.
.	4d	.	4a
8c	.	.	.
4d	8B-	.	[2g
.	8c	.	.
8B-	4d	.	.
8c	.	.	.
=14	=14	=14	=14
4d	4D	1A	4g]
4D	4d	.	4f#
4d	4D	.	4f#
4D	4d	.	8e
.	.	.	8f#
=15	=15	=15	=15
4d	4B-	[1G	1g
4B-	8G	.	.
.	8A	.	.
8G	8B-	.	.
8A	8c	.	.
8B-	4d	.	.
8c	.	.	.
=16	=16	=16	=16
4d	8G	1G]	2r
.	8A	.	.
8G	8B-	.	.
8A	8c	.	.
8B-	4d	.	2g
8c	.	.	.
4d	[4G	.	.
=17	=17	=17	=17
4.G	8G]	2r	1b-
.	8A	.	.
.	8B-	.	.
8A	8c	.	.
8B-	4d	2G	.
8c	.	.	.
4d	4r	.	.
=18	=18	=18	=18
4r	4.D	2F	2a
4.D	.	.	.
.	8D	.	.
.	4D	2F	2a
8D	.	.	.
4D	4D	.	.
=19	=19	=19	=19
4D	4GG	2B-	2g
4GG	4BB-	.	.
4BB-	4GG	2B-	2g
4GG	[4D	.	.
=20	=20	=20	=20
4.D	8D]	2A	2.a
.	8E	.	.
.	4F	.	.
8E	.	.	.
4F	4D	[2d	.
4D	4A	.	8g
.	.	.	8f
=21	=21	=21	=21
4A	4AA	4d]	1e
4AA	4r	8c#	.
.	.	8B	.
4r	4A	2c#	.
4A	4r	.	.
=22	=22	=22	=22
4r	4.D	2.d	4d
4.D	.	.	2f
.	8E	.	.
.	8F	.	.
8E	8G	.	.
8F	8A	8c	8e
8G	8B-	8B-	8d
=23	=23	=23	=23
8A	4c	2A	2c
8B-	.	.	.
4c	4r	.	.
4r	2G	2B-	2d
[4G	.	.	.
=24	=24	=24	=24
4G]	4C	1c	1e
4C	4c	.	.
4c	4A	.	.
4A	[4c	.	.
=25	=25	=25	=25
4.c	8c]	1A	2c
.	8B-	.	.
.	8A	.	.
8B-	8G	.	.
8A	4F	.	2f
8G	.	.	.
4F	4c	.	.
=26	=26	=26	=26
4c	4C	2G	4e
4C	4r	.	4d
4r	4D	2F	[2d
4D	4r	.	.
=27	=27	=27	=27
4r	4.AA	1E	2d]
4.AA	.	.	.
.	8AA	.	.
.	4AA	.	2c#
8AA	.	.	.
4AA	[4A	.	.
=28	=28	=28	=28
4.A	8A]	[1D	1d
.	8A	.	.
.	4A	.	.
8A	.	.	.
4A	4D	.	.
4D	[4F	.	.
=29	=29	=29	=29
4.F	8F]	1D]	2r
.	8G	.	.
.	4A	.	.
8G	.	.	.
4A	4.D	.	4f
[4D	.	.	4g
.	8E	.	.
=30	=30	=30	=30
8D]	4F	2r	2.a
8E	.	.	.
4F	8D	.	.
.	8E	.	.
8D	8F	2d	.
8E	8G	.	.
8F	8A	.	8g
8G	8B-	.	8f
=31	=31	=31	=31
8A	4c	2c	2e
8B-	.	.	.
4c	4r	.	.
4r	2d	2B-	[2d
[4d	.	.	.
=32	=32	=32	=32
4d]	4B-	1G	2d]
4B-	4G	.	.
4G	8B-	.	[2g
.	8c	.	.
8B-	4d	.	.
8c	.	.	.
=33	=33	=33	=33
4d	2D	1A	4g]
2D	.	.	4f#
.	4r	.	4f#
4r	[4d	.	8e
.	.	.	8f#
=34	=34	=34	=34
4.d	8d]	2G	2.g
.	8c	.	.
.	8B-	.	.
8c	8A	.	.
8B-	8G	[2B-	.
8A	8F	.	.
8G	4G	.	8f
8F	.	.	8e
=35	=35	=35	=35
4G	4r	2B-]	2d
4r	4G	.	.
4G	4C	2c	[2c
4C	[4c	.	.
=36	=36	=36	=36
4.c	8c]	1A	2c]
.	8B-	.	.
.	8A	.	.
8B-	8G	.	.
8A	4F	.	2f
8G	.	.	.
4F	4c	.	.
=37	=37	=37	=37
4c	4C	1G	2e
4C	8G	.	.
.	8A	.	.
8G	8B-	.	[2d
8A	8c	.	.
8B-	4d	.	.
8c	.	.	.
=38	=38	=38	=38
4d	4G	2B-	2d]
4G	4r	.	.
4r	4A	2A	2c
4A	4r	.	.
=39	=39	=39	=39
4r	4D	2F	2.d
4D	4r	.	.
4r	4GG	[2G	.
4GG	4r	.	8c
.	.	.	8B-
=40	=40	=40	=40
4r	4D	4G]	1A
4D	4r	4F#	.
4r	4D	4F#	.
4D	4r	8E	.
.	.	8F#	.
=41	=41	=41	=41
4r	4GG	[1G	1G
4GG	8G	.	.
.	8F	.	.
8G	8G	.	.
8F	8A	.	.
8G	4B-	.	.
8A	.	.	.
=42	=42	=42	=42
4B-	8G	1G]	2r
.	8F	.	.
8G	8G	.	.
8F	8A	.	.
8G	8B-	.	2G
8A	8c	.	.
8B-	4d	.	.
8c	.	.	.
=43	=43	=43	=43
4d	2G	2r	4B-
2G	.	.	4c
.	2r	2G	2d
4r	.	.	.
=44	=44	=44	=44
1r	1r	2A	2c
.	.	2F	2f
=45	=45	=45	=45
1r	1r	2G	4e
.	.	.	4d
.	.	2D	[2d
=46	=46	=46	=46
1r	1r	1E	2d]
.	.	.	2c#
=47	=47	=47	=47
4r	2A	[1D	1d
2A	.	.	.
.	4D	.	.
4D	4A	.	.
=48	=48	=48	=48
4A	4F	1D]	2r
4F	4.A	.	.
4.A	.	.	2d
.	8G	.	.
.	8F	.	.
8G	8E	.	.
=49	=49	=49	=49
8F	4.D	2r	4f
8E	.	.	.
4.D	.	.	4g
.	8E	.	.
.	4.F	2D	[2a
8E	.	.	.
[4F	.	.	.
.	8G	.	.
=50	=50	=50	=50
8F]	2A	1F	2a]
8G	.	.	.
2A	.	.	.
.	2r	.	2cc
4r	.	.	.
=51	=51	=51	=51
4r	4d	2G	4a
4d	4.B-	.	2b-
4.B-	.	2G	.
.	8c	.	.
.	4d	.	8a
8c	.	.	8g
=52	=52	=52	=52
4d	4D	2A	2f
4D	4r	.	.
4r	4G	2B-	2g
4G	4r	.	.
=53	=53	=53	=53
4r	4.F	2c	2a
4.F	.	.	.
.	8E	.	.
.	8D	[2d	2f
8E	8C	.	.
8D	4BB-	.	.
8C	.	.	.
=54	=54	=54	=54
4BB-	4r	2d]	4b-
4r	4B-	.	4a
4B-	4E-	2e-	2g
4E-	4B-	.	.
=55	=55	=55	=55
4B-	4r	2d	1f
4r	4BB-	.	.
4BB-	4r	[2B-	.
4r	8B-	.	.
.	8c	.	.
=56	=56	=56	=56
8B-	8d	2B-]	2b-
8c	8e	.	.
8d	4f	.	.
8e	.	.	.
4f	4F	2c	2a
4F	4r	.	.
=57	=57	=57	=57
4r	4C	2d	2b-
4C	4r	.	.
4r	4F	2c	4cc
4F	4r	.	4b-
=58	=58	=58	=58
4r	4D	2d	4a
4D	4r	.	4g
4r	2d	2B-	[2g
[4d	.	.	.
=59	=59	=59	=59
4d]	4D	1A	4g]
4D	4d	.	4f#
4d	4D	.	4f#
4D	4d	.	8e
.	.	.	8f#
=60	=60	=60	=60
4d	4B-	[1G	[1g
4B-	4G	.	.
4G	8d	.	.
.	8c	.	.
8d	8B-	.	.
8c	8A	.	.
=61	=61	=61	=61
8B-	[1G	1G_	1g_
8A	.	.	.
[2.G	.	.	.
=62	=62	=62	=62
1G]	1G]	1G]	1g]
==	==	==	==
*-	*-	*-	*-
!!!COA: Hayne van Ghizeghem
!!!CDT: ~1440///-1521//
!!!OCY: ?Italia
!!!ODT: ?
!!!AFR: cantus firmus mass
!!!AGN: chanson
!!!AST: polyphony
!!!AMT: simple duple
!!!AIN: vox
!!!YEP: David Huron and Denis Collins
!!!YEN: Canada
!!!EEV: 1.0
!!!RDT: 1995 July 2
!!!YED: 1995 August 31
